X: 1
T: Maurice
T: 8 x 32S 2C (RSCDS Bk 33)
P: Inukshuk
C: by Ron Wallace 2002
C: Arr. T. Traub 3/2/2012
R: strathspey
M: 4/4
L: 1/8
K: F
F|"F"C<FF>A "Bb"G>F"C"G<A|"F"F<FA>c "Bb"d2 d>f|"F"c<AA>c "Bb"B<dd>F|"C"E<cc>B BAGF|"F"C<FF>A "Bb"G>F"C"G<A|
"Dm"F<FA>c "Bb"d2 d>f|"F"c<AA>c "Bb"B<dg>f|"C"(3edc (3BAG "F"A<F F2|| "F"A2 A<c "Bb"d>c!beambr1!d<f|"F"A2 A>F "C"G2 G>A|"F"A<Ac<c "Dm"f<f"Am"a>g|
"Bb"f<dd>c "C"c2 cF|"F"A2 A<c "Bb"d>c!beambr1!d<f|"F"A<AA>F "C"G>ABd|"Am"A<cc>A "Bb"B>dg>f|"C"(3edc (3BAG "F"A<F F2|]
